X:1
T:Title
%%score { ( 1 3 ) | ( 2 4 ) }
L:1/8
M:4/4
K:Bb
V:1 treble nm="Grand Piano"
V:3 treble 
V:2 bass 
V:4 bass 
V:1
 z4 z2[Q:1/4=94] [B,D]>[CE] | [DF]>[DF] [EG]>[EA] [DB]>[CA] [DB]>[Ec] | %2
[M:3/4] d2- [Fd-]>[Fd-] [Fd]2 |[M:1/4] [Fd]>[Fe] |[M:4/4] c>F c>F c>e d>c |[M:3/4] B6 | %6
[M:1/4] D>[CE] |[M:4/4] [DF]>[DF] [EG]>[EA] [DB]>[CA] [DB]>[Ec] |[M:3/4] d6 |[M:1/4] [Fd]>[Fd] | %10
[M:4/4] [Fc]>[Fc] [G=e]>[Bd] [Ac]>[GB] [FA]>[=EG] | F6 z2 | d->[Fd] d->[Fd] d->[Fd] D>D | %13
 [EG]>[DF] [DF]>[_D=E] [=DF]2 [DB]>[Dc] | B>A A>_A =A2 [Ge]>[Ge] | [Fd]>[Ec] [DB]>[EG] [DF]4 | %16
 d->[Fd] d->[Fd] d->[Fd] D>D | [EG]>[DF] [DF]>[_D=E] [=DF]2 [DB]>[Dc] | B>A A>e d2 c2 | %19
[M:3/4] [DB]6 |] %20
V:2
 z4 z2 [B,,F,]>[B,,F,] | [B,,B,]>[B,,B,] [B,,B,]>[B,,B,] [B,,F,]>[B,,F,] [B,,F,]>[B,,F,] | %2
[M:3/4] [B,,B,]2 [B,,B,]>[B,,B,] [B,,B,]2 |[M:1/4] [B,,B,]>[B,,B,] | %4
[M:4/4] [F,A,E]>[F,A,E] [F,A,E]>[F,A,E] [F,A,E]>[F,A,G] [F,B,F]>[F,A,E] | %5
[M:3/4] B,,2 (3B,,-[B,,A,][B,,G,] [B,,F,]2 |[M:1/4] [B,,F,B,]>[B,,F,] | %7
[M:4/4] [B,,B,]>[B,,B,] [B,,B,]>[B,,B,] [B,,F,]>[B,,F,] [B,,F,]>[B,,F,] | %8
[M:3/4] [B,,B,]2 [B,,B,]>[B,,B,] [B,,B,]2 |[M:1/4] [B,,B,]>[B,,B,] | %10
[M:4/4] [C,A,]>[C,A,] [C,C]>[C,C] [C,C]>[C,C] [C,C]>[C,B,] | z4 A,4 | %12
 [B,,B,]>[B,,B,] [D,B,]>[F,B,] [B,,B,]>[B,,B,] [B,,B,]>[B,,B,] | %13
 [B,,B,]2 [B,,B,]>[B,,B,] [B,,B,]2 [B,,B,]>[B,,B,] | %14
 [F,CE]>[F,CE] [F,CE]>[F,=B,E] [F,CE]2 [F,A,]>[F,A,] | [B,,B,]>[B,,B,] [B,,B,]>[B,,B,] [B,,B,]4 | %16
 [B,,B,]>[B,,B,] [D,B,]>[F,B,] [B,,B,]>[B,,B,] [B,,B,]>[B,,B,] | %17
 [B,,B,]2 [B,,B,]>[B,,B,] [B,,B,]2 [B,,B,]>[B,,B,] | %18
 [F,CE]>[F,CE] [F,CE]>[F,A,F] [F,A,F]2 [F,A,E]2 |[M:3/4] [B,,B,]6 |] %20
V:3
 x8 | x8 |[M:3/4] F2 z2 z2 |[M:1/4] x2 |[M:4/4] x8 |[M:3/4] [B,D]2 (3[B,G]FE D2 |[M:1/4] x2 | %7
[M:4/4] x8 |[M:3/4] F2 F>F F2 |[M:1/4] x2 |[M:4/4] x8 | z2 C>C D2 E2 | F2 F2 F2 F2 | x8 | x8 | x8 | %16
 F2 F2 F2 F2 | x8 | x8 |[M:3/4] x6 |] %20
V:4
 x8 | x8 |[M:3/4] x6 |[M:1/4] x2 |[M:4/4] x8 |[M:3/4] x6 |[M:1/4] x2 |[M:4/4] x8 |[M:3/4] x6 | %9
[M:1/4] x2 |[M:4/4] x8 | [F,A,]2 [E,A,]>[E,A,] D,2 C,2 | x8 | x8 | x8 | x8 | x8 | x8 | x8 | %19
[M:3/4] x6 |] %20

